X:1
T:Alleluia - score
T:Alleluia - score
T:William Boyce (1710-1779) Round for three parts
C:William Boyce (1710-1779)
C:Round for three parts
%%score 1 2 3
L:1/8
Q:1/4=160
M:2/2
K:C
V:1 treble 
V:2 treble 
V:3 treble 
V:1
 c8 | B8 | A8 | G8 | A6 B2 | (cBAG AGFE | F4 G4) | !fermata!C8 | z2 C2 E2 C2 | G2 D2 G2 (AB) | %10
w: Al-|le-|lu-|ia,|al- le-|lu- * * * * * * *||ia.|Al- le- lu-|ia, al- le- lu- *|
 (cB) (AB) c2 d2 | !breath!B4 (G4 | G2) G2 F4 | E4 (c4 | c2) A2 B4 | !breath!!fermata!c8 | c6 e2 | %17
w: ia, al- * le- * lu-|ia, al-|* le- lu-|ia, al-|* le- lu-|ia.|Al- le-|
 (dcBA) G4 | G2 A2 ^F4 | !breath!G6 E2 | C4 D4 | C6 c2 | d4 [Gd]4 | !fermata![Ge]8 | c8 | B8 | A8 | %27
w: lu- * * * ia,|al- le- lu-|ia, al-|le- lu-|ia, al-|le- lu-|ia.|Al-|le-|lu-|
 G8 | A6 B2 | (cBAG AGFE | F4 G4) | !fermata!C8 | z2 C2 E2 C2 | G2 D2 G2 (AB) | (cB) (AB) c2 d2 | %35
w: ia,|al- le-|lu- * * * * * * *||ia.|Al- le- lu-|ia, al- le- lu- *|ia, al- * le- * lu-|
 !breath!B4 (G4 | G2) G2 F4 | E4 (c4 | c2) A2 B4 | !breath!!fermata!c8 | c6 e2 | (dcBA) G4 | %42
w: ia, al-|* le- lu-|ia, al-|* le- lu-|ia.|Al- le-|lu- * * * ia,|
 G2 A2 ^F4 | !breath!G6 E2 | C4 D4 | C6 c2 | d4 [Gd]4 | !fermata![Ge]8 |] %48
w: al- le- lu-|ia, al-|le- lu-|ia, al-|le- lu-|ia.|
V:2
 z8 | z8 | z8 | z8 | z8 | z8 | z8 | z8 | c8 | B8 | A8 | G8 | A6 B2 | (cBAG AGFE | F4 G4) | %15
w: ||||||||Al-|le-|lu-|ia,|al- le-|lu- * * * * * * *||
 !fermata!C8 | z2 C2 E2 C2 | G2 D2 G2 (AB) | (cB) (AB) c2 d2 | !breath!B4 (G4 | G2) G2 F4 | %21
w: ia.|Al- le- lu-|ia, al- le- lu- *|ia, al- * le- * lu-|ia, al-|* le- lu-|
 E4 (c4 | c2) A2 B4 | !breath!!fermata!c8 | c6 e2 | (dcBA) G4 | G2 A2 ^F4 | !breath!G6 E2 | C4 D4 | %29
w: ia, al-|* le- lu-|ia.|Al- le-|lu- * * * ia,|al- le- lu-|ia, al-|le- lu-|
 C6 c2 | d4 [Gd]4 | !fermata![Ge]8 | c8 | B8 | A8 | G8 | A6 B2 | (cBAG AGFE | F4 G4) | %39
w: ia, al-|le- lu-|ia.|Al-|le-|lu-|ia,|al- le-|lu- * * * * * * *||
 !fermata!C8 | z2 C2 E2 C2 | G2 D2 G2 (AB) | (cB) (AB) c2 d2 | !breath!B4 (G4 | G2) G2 F4 | %45
w: ia.|Al- le- lu-|ia, al- le- lu- *|ia, al- * le- * lu-|ia, al-|* le- lu-|
 E4 (c4 | c2) A2 B4 | !breath!!fermata!c8 |] %48
w: ia, al-|* le- lu-|ia.|
V:3
 z8 | z8 | z8 | z8 | z8 | z8 | z8 | z8 | z8 | z8 | z8 | z8 | z8 | z8 | z8 | z8 | c8 | B8 | A8 | %19
w: ||||||||||||||||Al-|le-|lu-|
 G8 | A6 B2 | (cBAG AGFE | F4 G4) | !fermata!C8 | z2 C2 E2 C2 | G2 D2 G2 (AB) | (cB) (AB) c2 d2 | %27
w: ia,|al- le-|lu- * * * * * * *||ia.|Al- le- lu-|ia, al- le- lu- *|ia, al- * le- * lu-|
 !breath!B4 (G4 | G2) G2 F4 | E4 (c4 | c2) A2 B4 | !breath!!fermata!c8 | c6 e2 | (dcBA) G4 | %34
w: ia, al-|* le- lu-|ia, al-|* le- lu-|ia.|Al- le-|lu- * * * ia,|
 G2 A2 ^F4 | !breath!G6 E2 | C4 D4 | C6 c2 | d4 [Gd]4 | !fermata![Ge]8 | c8 | B8 | A8 | G8 | %44
w: al- le- lu-|ia, al-|le- lu-|ia, al-|le- lu-|ia.|Al-|le-|lu-|ia,|
 A6 B2 | (cBAG AGFE | F4 G4) | !fermata!C8 |] %48
w: al- le-|lu- * * * * * * *||ia.|

